src/Pure/16/symbolic/apps/accessories-calculator-symbolic.svg

<?xml version="1.0" encoding="UTF-8" standalone="no"?>
<svg
   height="16"
   width="16"
   version="1.1"
   id="svg1"
   sodipodi:docname="accessories-calculator-symbolic.svg"
   inkscape:version="1.4.2 (ebf0e940d0, 2025-05-08)"
   xmlns:inkscape="http://www.inkscape.org/namespaces/inkscape"
   xmlns:sodipodi="http://sodipodi.sourceforge.net/DTD/sodipodi-0.dtd"
   xmlns="http://www.w3.org/2000/svg"
   xmlns:svg="http://www.w3.org/2000/svg">
  <defs
     id="defs1">
    <style
       id="current-color-scheme"
       type="text/css">
        .ColorScheme-Text { color:#363636; }
     </style>
  </defs>
  <sodipodi:namedview
     id="namedview1"
     pagecolor="#ffffff"
     bordercolor="#000000"
     borderopacity="0.25"
     inkscape:showpageshadow="2"
     inkscape:pageopacity="0.0"
     inkscape:pagecheckerboard="0"
     inkscape:deskcolor="#d1d1d1"
     inkscape:zoom="49.6875"
     inkscape:cx="7.9798742"
     inkscape:cy="8"
     inkscape:window-width="1920"
     inkscape:window-height="1010"
     inkscape:window-x="0"
     inkscape:window-y="0"
     inkscape:window-maximized="1"
     inkscape:current-layer="svg1" />
  <path
     id="path1"
     style="fill:currentColor"
     class="ColorScheme-Text"
     d="M 3.5,1 C 2,1 2,2.5 2,2.5 v 11.000001 c 0,0 0,1.5 1.5,1.5 h 10 c 1.5,0 1.5,-1.5 1.5,-1.5 V 2.5 C 15,2.5 15,1 13.5,1 Z m 0,1 h 10 c 0,0 0.5,0 0.5,0.5 v 2 C 14,5 13.5,5 13.5,5 H 3.5 C 3,5 3,4.5 3,4.5 v -2 C 3,2.5 3,2 3.5,2 Z M 3.1660156,6 c 0.00666,-6.104e-4 0.012594,0 0.019531,0 h 1.625 c 0.11,0 0.1875,0.079453 0.1875,0.1894531 v 1.625 c 0,0.1 -0.0765,0.1796875 -0.1875,0.1796875 h -1.625 a 0.181,0.181 0 0 1 -0.1875,-0.1894531 v -1.625 C 2.9980469,6.0859375 3.066095,6.0091553 3.1660156,6 Z m 3,0 c 0.00666,-6.104e-4 0.012594,0 0.019531,0 h 1.625 c 0.11,0 0.1875,0.079453 0.1875,0.1894531 v 1.625 c 0,0.1 -0.0765,0.1796875 -0.1875,0.1796875 h -1.625 a 0.181,0.181 0 0 1 -0.1875,-0.1894531 v -1.625 C 5.9980469,6.0859375 6.066095,6.0091553 6.1660156,6 Z m 3,0 c 0.00666,-6.104e-4 0.012594,0 0.019531,0 h 1.6250001 c 0.11,0 0.1875,0.079453 0.1875,0.1894531 v 1.625 c 0,0.1 -0.0765,0.1796875 -0.1875,0.1796875 H 9.1855469 a 0.181,0.181 0 0 1 -0.1875,-0.1894531 v -1.625 C 8.9980469,6.0859375 9.066095,6.0091553 9.1660156,6 Z m 3.0000004,0 c 0.0067,-6.104e-4 0.01259,0 0.01953,0 h 1.625 c 0.11,0 0.1875,0.079453 0.1875,0.1894531 v 1.625 c 0,0.1 -0.0765,0.1796875 -0.1875,0.1796875 h -1.625 a 0.181,0.181 0 0 1 -0.1875,-0.1894531 v -1.625 c 0,-0.09375 0.06805,-0.1705322 0.167969,-0.1796875 z M 3.1660156,9 c 0.00666,-6.104e-4 0.012594,0 0.019531,0 h 1.625 c 0.11,0 0.1875,0.079453 0.1875,0.1894531 v 1.6250009 c 0,0.1 -0.0765,0.179687 -0.1875,0.179687 h -1.625 a 0.181,0.181 0 0 1 -0.1875,-0.189453 V 9.1796875 C 2.9980469,9.0859375 3.066095,9.0091553 3.1660156,9 Z m 3,0 c 0.00666,-6.104e-4 0.012594,0 0.019531,0 h 1.625 c 0.11,0 0.1875,0.079453 0.1875,0.1894531 v 1.6250009 c 0,0.1 -0.0765,0.179687 -0.1875,0.179687 h -1.625 a 0.181,0.181 0 0 1 -0.1875,-0.189453 V 9.1796875 C 5.9980469,9.0859375 6.066095,9.0091553 6.1660156,9 Z m 3,0 c 0.00666,-6.104e-4 0.012594,0 0.019531,0 h 1.6250001 c 0.11,0 0.1875,0.079453 0.1875,0.1894531 v 1.6250009 c 0,0.1 -0.0765,0.179687 -0.1875,0.179687 H 9.1855469 a 0.181,0.181 0 0 1 -0.1875,-0.189453 V 9.1796875 C 8.9980469,9.0859375 9.066095,9.0091553 9.1660156,9 Z m 3.0000004,0 c 0.0067,-6.104e-4 0.01259,0 0.01953,0 h 1.625 c 0.11,0 0.1875,0.079453 0.1875,0.1894531 v 1.6250009 c 0,0.1 -0.0765,0.179687 -0.1875,0.179687 h -1.625 a 0.181,0.181 0 0 1 -0.1875,-0.189453 V 9.1796875 c 0,-0.09375 0.06805,-0.1705322 0.167969,-0.1796875 z m -9.0000004,3.000001 c 0.00666,-6.11e-4 0.012594,0 0.019531,0 h 1.625 c 0.11,0 0.1875,0.07945 0.1875,0.189453 v 1.625 c 0,0.1 -0.0765,0.179687 -0.1875,0.179687 h -1.625 a 0.181,0.181 0 0 1 -0.1875,-0.189453 v -1.625 c 0,-0.09375 0.068048,-0.170532 0.1679687,-0.179687 z m 3,0 c 0.00666,-6.11e-4 0.012594,0 0.019531,0 h 1.625 c 0.11,0 0.1875,0.07945 0.1875,0.189453 v 1.625 c 0,0.1 -0.0765,0.179687 -0.1875,0.179687 h -1.625 a 0.181,0.181 0 0 1 -0.1875,-0.189453 v -1.625 c 0,-0.09375 0.068048,-0.170532 0.1679687,-0.179687 z m 3,0 c 0.00666,-6.11e-4 0.012594,0 0.019531,0 h 1.6250001 c 0.11,0 0.1875,0.07945 0.1875,0.189453 v 1.625 c 0,0.1 -0.0765,0.179687 -0.1875,0.179687 H 9.1855469 a 0.181,0.181 0 0 1 -0.1875,-0.189453 v -1.625 c 0,-0.09375 0.068048,-0.170532 0.1679687,-0.179687 z m 3.0000004,0 c 0.0067,-6.11e-4 0.01259,0 0.01953,0 h 1.625 c 0.11,0 0.1875,0.07945 0.1875,0.189453 v 1.625 c 0,0.1 -0.0765,0.179687 -0.1875,0.179687 h -1.625 a 0.181,0.181 0 0 1 -0.1875,-0.189453 v -1.625 c 0,-0.09375 0.06805,-0.170532 0.167969,-0.179687 z" />
</svg>

<?xml version="1.0" encoding="UTF-8" standalone="no"?>
<svg
   height="16"
   width="16"
   version="1.1"
   id="svg1"
   sodipodi:docname="accessories-calculator-symbolic.svg"
   inkscape:version="1.4.2 (ebf0e940d0, 2025-05-08)"
   xmlns:inkscape="http://www.inkscape.org/namespaces/inkscape"
   xmlns:sodipodi="http://sodipodi.sourceforge.net/DTD/sodipodi-0.dtd"
   xmlns="http://www.w3.org/2000/svg"
   xmlns:svg="http://www.w3.org/2000/svg">
  <defs
     id="defs1">
     <style id="current-color-scheme" type="text/css">
        .ColorScheme-Text { color:#363636; }
     </style>
  </defs>
  <sodipodi:namedview
     id="namedview1"
     pagecolor="#ffffff"
     bordercolor="#000000"
     borderopacity="0.25"
     inkscape:showpageshadow="2"
     inkscape:pageopacity="0.0"
     inkscape:pagecheckerboard="0"
     inkscape:deskcolor="#d1d1d1"
     inkscape:zoom="49.6875"
     inkscape:cx="7.9899371"
     inkscape:cy="8"
     inkscape:window-width="1920"
     inkscape:window-height="1010"
     inkscape:window-x="0"
     inkscape:window-y="0"
     inkscape:window-maximized="1"
     inkscape:current-layer="svg1" />
  <path
     id="path1"
     style="fill:currentColor"
     class="ColorScheme-Text"
     d="M 3.5 1.0234375 C 2 1.0234375 2 2.5234375 2 2.5234375 L 2 13.523438 C 2 13.523438 2 15.023438 3.5 15.023438 L 13.5 15.023438 C 15 15.023438 15 13.523438 15 13.523438 L 15 2.5234375 C 15 2.5234375 15 1.0234375 13.5 1.0234375 L 3.5 1.0234375 z M 3.5 2.0234375 L 13.5 2.0234375 C 13.5 2.0234375 14 2.0234375 14 2.5234375 L 14 4.5234375 C 14 5.0234375 13.5 5.0234375 13.5 5.0234375 L 3.5 5.0234375 C 3 5.0234375 3 4.5234375 3 4.5234375 L 3 2.5234375 C 3 2.5234375 3 2.0234375 3.5 2.0234375 z M 3.1660156 6.0234375 C 3.172677 6.0228271 3.1786094 6.0234375 3.1855469 6.0234375 L 4.8105469 6.0234375 C 4.9205469 6.0234375 4.9980469 6.1028906 4.9980469 6.2128906 L 4.9980469 7.8378906 C 4.9980469 7.9378906 4.9215469 8.0175781 4.8105469 8.0175781 L 3.1855469 8.0175781 A 0.181 0.181 0 0 1 2.9980469 7.828125 L 2.9980469 6.203125 C 2.9980469 6.109375 3.066095 6.0325928 3.1660156 6.0234375 z M 6.1660156 6.0234375 C 6.172677 6.0228271 6.1786094 6.0234375 6.1855469 6.0234375 L 7.8105469 6.0234375 C 7.9205469 6.0234375 7.9980469 6.1028906 7.9980469 6.2128906 L 7.9980469 7.8378906 C 7.9980469 7.9378906 7.9215469 8.0175781 7.8105469 8.0175781 L 6.1855469 8.0175781 A 0.181 0.181 0 0 1 5.9980469 7.828125 L 5.9980469 6.203125 C 5.9980469 6.109375 6.066095 6.0325928 6.1660156 6.0234375 z M 9.1660156 6.0234375 C 9.172677 6.0228271 9.1786094 6.0234375 9.1855469 6.0234375 L 10.810547 6.0234375 C 10.920547 6.0234375 10.998047 6.1028906 10.998047 6.2128906 L 10.998047 7.8378906 C 10.998047 7.9378906 10.921547 8.0175781 10.810547 8.0175781 L 9.1855469 8.0175781 A 0.181 0.181 0 0 1 8.9980469 7.828125 L 8.9980469 6.203125 C 8.9980469 6.109375 9.066095 6.0325928 9.1660156 6.0234375 z M 12.166016 6.0234375 C 12.172677 6.0228271 12.178609 6.0234375 12.185547 6.0234375 L 13.810547 6.0234375 C 13.920547 6.0234375 13.998047 6.1028906 13.998047 6.2128906 L 13.998047 7.8378906 C 13.998047 7.9378906 13.921547 8.0175781 13.810547 8.0175781 L 12.185547 8.0175781 A 0.181 0.181 0 0 1 11.998047 7.828125 L 11.998047 6.203125 C 11.998047 6.109375 12.066095 6.0325928 12.166016 6.0234375 z M 3.1660156 9.0234375 C 3.172677 9.0228271 3.1786094 9.0234375 3.1855469 9.0234375 L 4.8105469 9.0234375 C 4.9205469 9.0234375 4.9980469 9.1028906 4.9980469 9.2128906 L 4.9980469 10.837891 C 4.9980469 10.937891 4.9215469 11.017578 4.8105469 11.017578 L 3.1855469 11.017578 A 0.181 0.181 0 0 1 2.9980469 10.828125 L 2.9980469 9.203125 C 2.9980469 9.109375 3.066095 9.0325928 3.1660156 9.0234375 z M 6.1660156 9.0234375 C 6.172677 9.0228271 6.1786094 9.0234375 6.1855469 9.0234375 L 7.8105469 9.0234375 C 7.9205469 9.0234375 7.9980469 9.1028906 7.9980469 9.2128906 L 7.9980469 10.837891 C 7.9980469 10.937891 7.9215469 11.017578 7.8105469 11.017578 L 6.1855469 11.017578 A 0.181 0.181 0 0 1 5.9980469 10.828125 L 5.9980469 9.203125 C 5.9980469 9.109375 6.066095 9.0325928 6.1660156 9.0234375 z M 9.1660156 9.0234375 C 9.172677 9.0228271 9.1786094 9.0234375 9.1855469 9.0234375 L 10.810547 9.0234375 C 10.920547 9.0234375 10.998047 9.1028906 10.998047 9.2128906 L 10.998047 10.837891 C 10.998047 10.937891 10.921547 11.017578 10.810547 11.017578 L 9.1855469 11.017578 A 0.181 0.181 0 0 1 8.9980469 10.828125 L 8.9980469 9.203125 C 8.9980469 9.109375 9.066095 9.0325928 9.1660156 9.0234375 z M 12.166016 9.0234375 C 12.172677 9.0228271 12.178609 9.0234375 12.185547 9.0234375 L 13.810547 9.0234375 C 13.920547 9.0234375 13.998047 9.1028906 13.998047 9.2128906 L 13.998047 10.837891 C 13.998047 10.937891 13.921547 11.017578 13.810547 11.017578 L 12.185547 11.017578 A 0.181 0.181 0 0 1 11.998047 10.828125 L 11.998047 9.203125 C 11.998047 9.109375 12.066095 9.0325928 12.166016 9.0234375 z M 3.1660156 12.023438 C 3.172677 12.022827 3.1786094 12.023438 3.1855469 12.023438 L 4.8105469 12.023438 C 4.9205469 12.023438 4.9980469 12.102891 4.9980469 12.212891 L 4.9980469 13.837891 C 4.9980469 13.937891 4.9215469 14.017578 4.8105469 14.017578 L 3.1855469 14.017578 A 0.181 0.181 0 0 1 2.9980469 13.828125 L 2.9980469 12.203125 C 2.9980469 12.109375 3.066095 12.032593 3.1660156 12.023438 z M 6.1660156 12.023438 C 6.172677 12.022827 6.1786094 12.023438 6.1855469 12.023438 L 7.8105469 12.023438 C 7.9205469 12.023438 7.9980469 12.102891 7.9980469 12.212891 L 7.9980469 13.837891 C 7.9980469 13.937891 7.9215469 14.017578 7.8105469 14.017578 L 6.1855469 14.017578 A 0.181 0.181 0 0 1 5.9980469 13.828125 L 5.9980469 12.203125 C 5.9980469 12.109375 6.066095 12.032593 6.1660156 12.023438 z M 9.1660156 12.023438 C 9.172677 12.022827 9.1786094 12.023438 9.1855469 12.023438 L 10.810547 12.023438 C 10.920547 12.023438 10.998047 12.102891 10.998047 12.212891 L 10.998047 13.837891 C 10.998047 13.937891 10.921547 14.017578 10.810547 14.017578 L 9.1855469 14.017578 A 0.181 0.181 0 0 1 8.9980469 13.828125 L 8.9980469 12.203125 C 8.9980469 12.109375 9.066095 12.032593 9.1660156 12.023438 z M 12.166016 12.023438 C 12.172677 12.022827 12.178609 12.023438 12.185547 12.023438 L 13.810547 12.023438 C 13.920547 12.023438 13.998047 12.102891 13.998047 12.212891 L 13.998047 13.837891 C 13.998047 13.937891 13.921547 14.017578 13.810547 14.017578 L 12.185547 14.017578 A 0.181 0.181 0 0 1 11.998047 13.828125 L 11.998047 12.203125 C 11.998047 12.109375 12.066095 12.032593 12.166016 12.023438 z " />
</svg>
